src/assets/icons/media-reading-writing,fancy,news.svg

<svg width="48" height="48" viewBox="0 0 48 48" fill="none" xmlns="http://www.w3.org/2000/svg">
<path opacity="0.6" d="M5 21.6001C5 20.4955 5.89543 19.6001 7 19.6001H15.4V39.0001C15.4 41.2092 13.6091 43.0001 11.4 43.0001H9C6.79086 43.0001 5 41.2092 5 39.0001V21.6001Z" fill="black"/>
<path fill-rule="evenodd" clip-rule="evenodd" d="M11.4023 43H15.4004L15.4004 39C15.4004 41.2085 13.6106 42.9989 11.4023 43Z" fill="black"/>
<g opacity="0.4">
<path d="M20.5996 10.5002C20.5996 9.78223 21.2301 9.2002 22.0079 9.2002H36.0913C36.8691 9.2002 37.4996 9.78223 37.4996 10.5002C37.4996 11.2182 36.8691 11.8002 36.0913 11.8002H22.0079C21.2301 11.8002 20.5996 11.2182 20.5996 10.5002Z" fill="black"/>
<path d="M20.5996 18.3002C20.5996 17.5822 21.2301 17.0002 22.0079 17.0002H36.0913C36.8691 17.0002 37.4996 17.5822 37.4996 18.3002C37.4996 19.0182 36.8691 19.6002 36.0913 19.6002H22.0079C21.2301 19.6002 20.5996 19.0182 20.5996 18.3002Z" fill="black"/>
<path d="M20.5996 26.1002C20.5996 25.3822 21.2301 24.8002 22.0079 24.8002H36.0913C36.8691 24.8002 37.4996 25.3822 37.4996 26.1002C37.4996 26.8182 36.8691 27.4002 36.0913 27.4002H22.0079C21.2301 27.4002 20.5996 26.8182 20.5996 26.1002Z" fill="black"/>
<path d="M20.5996 33.9002C20.5996 33.1822 21.2301 32.6002 22.0079 32.6002H31.8663C32.6441 32.6002 33.2746 33.1822 33.2746 33.9002C33.2746 34.6182 32.6441 35.2002 31.8663 35.2002H22.0079C21.2301 35.2002 20.5996 34.6182 20.5996 33.9002Z" fill="black"/>
</g>
<path fill-rule="evenodd" clip-rule="evenodd" d="M17.4004 4C16.2958 4 15.4004 4.89543 15.4004 6V43H38.7004C40.9095 43 42.7004 41.2091 42.7004 39V6C42.7004 4.89543 41.805 4 40.7004 4H17.4004ZM22.0087 9.2C21.2309 9.2 20.6003 9.78203 20.6003 10.5C20.6003 11.218 21.2309 11.8 22.0087 11.8H36.092C36.8698 11.8 37.5003 11.218 37.5003 10.5C37.5003 9.78203 36.8698 9.2 36.092 9.2H22.0087ZM22.0087 17C21.2309 17 20.6003 17.582 20.6003 18.3C20.6003 19.018 21.2309 19.6 22.0087 19.6H36.092C36.8698 19.6 37.5003 19.018 37.5003 18.3C37.5003 17.582 36.8698 17 36.092 17H22.0087ZM20.6003 26.1C20.6003 25.382 21.2309 24.8 22.0087 24.8H36.092C36.8698 24.8 37.5003 25.382 37.5003 26.1C37.5003 26.818 36.8698 27.4 36.092 27.4H22.0087C21.2309 27.4 20.6003 26.818 20.6003 26.1ZM22.0087 32.6C21.2309 32.6 20.6003 33.182 20.6003 33.9C20.6003 34.618 21.2309 35.2 22.0087 35.2H31.867C32.6448 35.2 33.2753 34.618 33.2753 33.9C33.2753 33.182 32.6448 32.6 31.867 32.6H22.0087Z" fill="black"/>
</svg>

<svg xmlns="http://www.w3.org/2000/svg" width="48" height="48" fill="none" viewBox="0 0 48 48">
  <path fill="#000" d="M5 21.6a2 2 0 012-2h8.4V39a4 4 0 01-4 4H9a4 4 0 01-4-4V21.6z" opacity=".6"/>
  <path fill="#000" fill-rule="evenodd" d="M11.402 43H15.4v-4a4 4 0 01-3.998 4z" clip-rule="evenodd"/>
  <g opacity=".4">
    <path fill="#000" d="M20.6 10.5c0-.718.63-1.3 1.408-1.3H36.09c.778 0 1.409.582 1.409 1.3 0 .718-.63 1.3-1.409 1.3H22.008c-.778 0-1.408-.582-1.408-1.3zM20.6 18.3c0-.718.63-1.3 1.408-1.3H36.09c.778 0 1.409.582 1.409 1.3 0 .718-.63 1.3-1.409 1.3H22.008c-.778 0-1.408-.582-1.408-1.3zM20.6 26.1c0-.718.63-1.3 1.408-1.3H36.09c.778 0 1.409.582 1.409 1.3 0 .718-.63 1.3-1.409 1.3H22.008c-.778 0-1.408-.582-1.408-1.3zM20.6 33.9c0-.718.63-1.3 1.408-1.3h9.858c.778 0 1.409.582 1.409 1.3 0 .718-.63 1.3-1.409 1.3h-9.858c-.778 0-1.408-.582-1.408-1.3z"/>
  </g>
  <path fill="#000" fill-rule="evenodd" d="M17.4 4a2 2 0 00-2 2v37h23.3a4 4 0 004-4V6a2 2 0 00-2-2H17.4zm4.609 5.2c-.778 0-1.409.582-1.409 1.3 0 .718.63 1.3 1.409 1.3h14.083c.778 0 1.408-.582 1.408-1.3 0-.718-.63-1.3-1.408-1.3H22.009zm0 7.8c-.778 0-1.409.582-1.409 1.3 0 .718.63 1.3 1.409 1.3h14.083c.778 0 1.408-.582 1.408-1.3 0-.718-.63-1.3-1.408-1.3H22.009zM20.6 26.1c0-.718.63-1.3 1.409-1.3h14.083c.778 0 1.408.582 1.408 1.3 0 .718-.63 1.3-1.408 1.3H22.009c-.778 0-1.409-.582-1.409-1.3zm1.409 6.5c-.778 0-1.409.582-1.409 1.3 0 .718.63 1.3 1.409 1.3h9.858c.778 0 1.408-.582 1.408-1.3 0-.718-.63-1.3-1.408-1.3h-9.858z" clip-rule="evenodd"/>
</svg>
